localPackages/DesignSystem/Sources/DesignSystem/Resources/Assets.xcassets/IconSet/ic-arrow-right.imageset/ic-arrow-right.svg

<svg width="24" height="24" viewBox="0 0 24 24" fill="none" xmlns="http://www.w3.org/2000/svg">
<g id="ic-arrow-right">
<path id="Icon" fill-rule="evenodd" clip-rule="evenodd" d="M11.5277 3.21901C11.2357 3.513 11.2374 3.98801 11.5314 4.27997L18.5496 11.2498L3.75029 11.2498C3.33596 11.2498 3.00008 11.5857 3.00008 12C3.00008 12.4143 3.33596 12.7502 3.75029 12.7502L18.5496 12.7502L11.5314 19.72C11.2374 20.012 11.2357 20.487 11.5277 20.781C11.8196 21.075 12.2946 21.0766 12.5886 20.7847L20.6854 12.7438C20.8512 12.5792 20.9504 12.3732 20.9831 12.159C20.9942 12.1078 21 12.0546 21 12C21 11.9454 20.9942 11.8922 20.9831 11.841C20.9504 11.6268 20.8512 11.4208 20.6854 11.2562L12.5886 3.21534C12.2946 2.92337 11.8196 2.92502 11.5277 3.21901Z" fill="#0F0F0F"/>
</g>
</svg>

<svg xmlns="http://www.w3.org/2000/svg" width="24" height="24" viewBox="0 0 24 24">
  <g class="ic-arrow-right">
    <path fill-rule="evenodd" d="M11.528 3.22a.75.75 0 0 0 .003 1.06l7.019 6.97H3.75a.75.75 0 0 0 0 1.5h14.8l-7.019 6.97a.75.75 0 0 0 1.058 1.065l8.096-8.04c.166-.165.265-.371.298-.585a.75.75 0 0 0 0-.318 1.043 1.043 0 0 0-.298-.585L12.59 3.216a.75.75 0 0 0-1.061.004Z" class="Icon"/>
  </g>
</svg>
